icons/midnadark/actions/24/games-config-tiles.svg

<?xml version="1.0" encoding="UTF-8" standalone="no"?>
<!-- Created with Inkscape (http://www.inkscape.org/) -->

<svg
   xmlns:osb="http://www.openswatchbook.org/uri/2009/osb"
   xmlns:dc="http://purl.org/dc/elements/1.1/"
   xmlns:cc="http://creativecommons.org/ns#"
   xmlns:rdf="http://www.w3.org/1999/02/22-rdf-syntax-ns#"
   xmlns:svg="http://www.w3.org/2000/svg"
   xmlns="http://www.w3.org/2000/svg"
   xmlns:sodipodi="http://sodipodi.sourceforge.net/DTD/sodipodi-0.dtd"
   xmlns:inkscape="http://www.inkscape.org/namespaces/inkscape"
   width="22"
   height="22"
   id="svg3869"
   version="1.1"
   inkscape:version="0.91 r13725"
   sodipodi:docname="games-config-tiles.svg">
  <defs
     id="defs3871">
    <linearGradient
       id="linearGradient3257">
      <stop
         offset="0"
         style="stop-color:#a50000;stop-opacity:1"
         id="stop3259" />
      <stop
         offset="1"
         style="stop-color:#e73800;stop-opacity:1"
         id="stop3261" />
    </linearGradient>
    <clipPath
       clipPathUnits="userSpaceOnUse"
       id="clipPath4210">
      <rect
         y="1024.3622"
         x="-7"
         height="34"
         width="34"
         id="rect4212"
         style="opacity:1;fill:#0000ff;fill-opacity:0.51376145;stroke:none;stroke-opacity:1" />
    </clipPath>
    <clipPath
       clipPathUnits="userSpaceOnUse"
       id="clipPath4160">
      <rect
         style="opacity:1;fill:#aade87;fill-opacity:0.47247709;stroke:none;stroke-opacity:1"
         id="rect4162"
         width="32"
         height="32.000015"
         x="-6"
         y="1028.3619" />
    </clipPath>
    <linearGradient
       id="linearGradient4207"
       osb:paint="gradient">
      <stop
         style="stop-color:#3498db;stop-opacity:1;"
         offset="0"
         id="stop3371" />
      <stop
         style="stop-color:#3498db;stop-opacity:0;"
         offset="1"
         id="stop3373" />
    </linearGradient>
  </defs>
  <sodipodi:namedview
     id="base"
     pagecolor="#ffffff"
     bordercolor="#666666"
     borderopacity="1.0"
     inkscape:pageopacity="0.0"
     inkscape:pageshadow="2"
     inkscape:zoom="11.313708"
     inkscape:cx="-20.87705"
     inkscape:cy="15.160146"
     inkscape:document-units="px"
     inkscape:current-layer="layer1-4"
     showgrid="true"
     fit-margin-top="0"
     fit-margin-left="0"
     fit-margin-right="0"
     fit-margin-bottom="0"
     inkscape:window-width="1366"
     inkscape:window-height="633"
     inkscape:window-x="0"
     inkscape:window-y="33"
     inkscape:window-maximized="1"
     inkscape:showpageshadow="false"
     inkscape:object-nodes="true"
     inkscape:snap-bbox="true">
    <inkscape:grid
       type="xygrid"
       id="grid4132" />
    <sodipodi:guide
       position="4,18"
       orientation="18,0"
       id="guide4138" />
    <sodipodi:guide
       position="5,3"
       orientation="0,18"
       id="guide4140" />
    <sodipodi:guide
       position="20,2.0000174"
       orientation="-18,0"
       id="guide4142" />
    <sodipodi:guide
       position="2,21"
       orientation="0,-18"
       id="guide4144" />
    <sodipodi:guide
       position="3,19.000017"
       orientation="16,0"
       id="guide4146" />
    <sodipodi:guide
       position="2,4"
       orientation="0,16"
       id="guide4148" />
    <sodipodi:guide
       position="21,20"
       orientation="-16,0"
       id="guide4150" />
    <sodipodi:guide
       position="2,20"
       orientation="0,-16"
       id="guide4152" />
  </sodipodi:namedview>
  <metadata
     id="metadata3874">
    <rdf:RDF>
      <cc:Work
         rdf:about="">
        <dc:format>image/svg+xml</dc:format>
        <dc:type
           rdf:resource="http://purl.org/dc/dcmitype/StillImage" />
        <dc:title />
      </cc:Work>
    </rdf:RDF>
  </metadata>
  <g
     inkscape:label="Capa 1"
     inkscape:groupmode="layer"
     id="layer1"
     transform="translate(-326,-534.3622)">
    <g
       transform="translate(-224.28572,-74.2857)"
       id="layer1-4"
       inkscape:label="Capa 1">
      <g
         id="g4174"
         transform="translate(-0.99998557,1.0000118)"
         style="fill:#ffffff;fill-opacity:1">
        <path
           style="opacity:1;fill:#ffffff;fill-opacity:1;fill-rule:evenodd;stroke:none;stroke-width:0.80000001;stroke-linecap:square;stroke-linejoin:miter;stroke-miterlimit:4;stroke-dasharray:none;stroke-dashoffset:0;stroke-opacity:1"
           d="M 3.5 3 C 3.223 3 3 3.223 3 3.5 L 3 18.5 C 3 18.777 3.223 19 3.5 19 L 18.5 19 C 18.777 19 19 18.777 19 18.5 L 19 3.5 C 19 3.223 18.777 3 18.5 3 L 3.5 3 z M 6.2675781 6 L 15.707031 6 C 15.851767 6 15.96875 6.1169826 15.96875 6.2617188 L 15.96875 7.6074219 C 15.96875 7.752158 15.851767 7.8671875 15.707031 7.8671875 L 6.2675781 7.8671875 C 6.122842 7.8671875 6.0058594 7.752158 6.0058594 7.6074219 L 6.0058594 6.2617188 C 6.0058594 6.1169826 6.122842 6 6.2675781 6 z M 6.2773438 8.7695312 L 15.71875 8.7695312 C 15.863486 8.7695312 15.978516 8.8865139 15.978516 9.03125 L 15.978516 10.376953 C 15.978516 10.521689 15.863486 10.638672 15.71875 10.638672 L 6.2773438 10.638672 C 6.1326076 10.638672 6.015625 10.521689 6.015625 10.376953 L 6.015625 9.03125 C 6.015625 8.8865139 6.1326076 8.7695312 6.2773438 8.7695312 z M 6.2929688 11.402344 L 15.732422 11.402344 C 15.877158 11.402344 15.994141 11.517373 15.994141 11.662109 L 15.994141 13.007812 C 15.994141 13.152549 15.877158 13.269531 15.732422 13.269531 L 6.2929688 13.269531 C 6.1482326 13.269531 6.03125 13.152549 6.03125 13.007812 L 6.03125 11.662109 C 6.03125 11.517373 6.1482326 11.402344 6.2929688 11.402344 z M 6.2714844 14.132812 L 15.712891 14.132812 C 15.857627 14.132812 15.974609 14.247842 15.974609 14.392578 L 15.974609 15.738281 C 15.974609 15.883017 15.857627 16 15.712891 16 L 6.2714844 16 C 6.1267482 16 6.0117188 15.883017 6.0117188 15.738281 L 6.0117188 14.392578 C 6.0117188 14.247842 6.1267482 14.132812 6.2714844 14.132812 z "
           transform="translate(551.28571,607.64789)"
           id="rect4151" />
        <g
           inkscape:label="Capa 1"
           id="layer1-0"
           transform="matrix(1.3923669,0,0,1.3923669,551.77708,-835.45777)"
           style="fill:#ffffff;fill-opacity:1">
          <g
             transform="translate(-412.88298,512.00351)"
             id="layer1-4-0"
             inkscape:label="Capa 1"
             style="fill:#ffffff;fill-opacity:1">
            <g
               style="fill:#ffffff;fill-opacity:1"
               inkscape:label="Capa 1"
               id="layer1-7"
               transform="translate(392.57143,-514.5642)" />
            <g
               transform="translate(341.79698,500.25245)"
               id="g4240"
               style="fill:#ffffff;fill-opacity:1">
              <g
                 transform="translate(-392.98822,-511.27795)"
                 id="layer1-1"
                 inkscape:label="Capa 1"
                 inkscape:transform-center-x="5.4653607"
                 inkscape:transform-center-y="-9.4924686"
                 style="fill:#ffffff;fill-opacity:1">
                <g
                   id="g6267"
                   transform="matrix(1.3333333,0,0,1.3333333,-192.28663,-180.60423)"
                   style="fill:#ffffff;fill-opacity:1">
                  <g
                     id="g4186"
                     transform="translate(487.38743,509.59001)"
                     style="stroke:#1f2a47;stroke-opacity:1;fill:#ffffff;fill-opacity:1">
                    <g
                       id="g4186-3"
                       transform="matrix(0.52109202,0,0,0.52109202,-0.76995909,19.353185)"
                       style="stroke:#1f2a47;stroke-opacity:1;fill:#ffffff;fill-opacity:1">
                      <g
                         transform="translate(-400.92463,-509.18113)"
                         id="layer1-38-7"
                         inkscape:label="Capa 1"
                         inkscape:transform-center-x="5.4653607"
                         inkscape:transform-center-y="-9.4924686"
                         style="fill:#ffffff;fill-opacity:1">
                        <g
                           transform="translate(0.41988239,0.03484499)"
                           inkscape:label="Capa 1"
                           id="layer1-3-6"
                           style="fill:#ffffff;fill-opacity:1">
                          <g
                             inkscape:label="Capa 1"
                             id="layer1-2"
                             transform="matrix(1.0037077,0,0,1.0037077,11.267145,17.846026)"
                             style="fill:#ffffff;fill-opacity:1">
                            <g
                               transform="matrix(1.5263052,0,0,1.5263052,376.49864,-1040.1735)"
                               id="g4414-9"
                               style="fill:#ffffff;fill-opacity:1">
                              <g
                                 id="g4180"
                                 transform="matrix(1.1526351,0,0,1.1526351,-4.8344134,-156.43331)"
                                 style="fill:#ffffff;fill-opacity:1">
                                <g
                                   transform="matrix(0.56841663,0,0,0.56841663,10.426663,1005.5718)"
                                   id="g4186-6"
                                   style="fill:#ffffff;fill-opacity:1" />
                                <g
                                   id="g4246"
                                   transform="matrix(0.49019093,0,0,0.49019093,12.268743,518.1207)"
                                   style="fill:#ffffff;fill-opacity:1">
                                <g
                                   style="fill:#ffffff;fill-opacity:1"
                                   transform="translate(23.76951,0.13639152)"
                                   id="g4400-0" />
                                </g>
                              </g>
                            </g>
                          </g>
                        </g>
                      </g>
                    </g>
                  </g>
                </g>
              </g>
            </g>
          </g>
        </g>
      </g>
    </g>
  </g>
</svg>

<svg xmlns="http://www.w3.org/2000/svg" viewBox="0 0 22 22"><defs><clipPath><path fill="#00f" fill-opacity=".514" d="m-7 1024.36h34v34h-34z"/></clipPath><clipPath><path fill="#aade87" fill-opacity=".472" d="m-6 1028.36h32v32h-32z"/></clipPath></defs><path d="m3.5 3c-.277 0-.5.223-.5.5v15c0 .277.223.5.5.5h15c.277 0 .5-.223.5-.5v-15c0-.277-.223-.5-.5-.5h-15m2.768 3h9.439c.145 0 .262.117.262.262v1.346c0 .145-.117.26-.262.26h-9.439c-.145 0-.262-.115-.262-.26v-1.346c0-.145.117-.262.262-.262m.001 2.77h9.441c.145 0 .26.117.26.262v1.346c0 .145-.115.262-.26.262h-9.441c-.145 0-.262-.117-.262-.262v-1.346c0-.145.117-.262.262-.262m.016 2.633h9.439c.145 0 .262.115.262.26v1.346c0 .145-.117.262-.262.262h-9.439c-.145 0-.262-.117-.262-.262v-1.346c0-.145.117-.26.262-.26m-.021 2.73h9.441c.145 0 .262.115.262.26v1.346c0 .145-.117.262-.262.262h-9.441c-.145 0-.26-.117-.26-.262v-1.346c0-.145.115-.26.26-.26" transform="translate(0-.002)" fill="#fff" fill-rule="evenodd"/></svg>
